!!!OTL-incipit: ES WAREN EINMAL DREI REUTER GEFANGEN
!!!ARE: Europa, Mitteleuropa, Deutschland
!!!SCT: Z0058
!!!TXL: @@DE
!!!YEM: Copyright 1995, estate of Helmut Schaffrath.
**kern	**text
*ICvox	*
*M4/4	*
*met(c)	*
*k[]	*
*C:	*
!LO:TX:a:t=Jn Nord- und Süd-Deutſchland.	!
{4g	Es
=1	=1
4cc	wa-
8cc	-ren
8cc	ein-
4cc	-mal
4ee	drei
=2	=2
4cc	Reu-
8g	-ter
8g	ge-
4e}	-fangen,
{8ccL	ge-
8ddJ	.
=3	=3
4.ee	-fan-
8cc	-gen
8eeL	wa-
8ddJ	.
8ddL	-ren
8bJ	.
=4	=4
2cc	ſie;
4r}	.
{8ccL	ſie
8ddJ	.
=5	=5
4ee	wur-
8ee	-den
8ee	ge-
8ffL	-fan-
8eeJ	.
8dd	-gen
8cc	ge-
=6	=6
(4dd	-füh-
4b)	.
4g}	-ret,
{8g	kei-
8b/	-ne
=7	=7
8dd	Trommel
8dd	.
8dd	ward
8ff	da-
8eeL	-bei
8ddJ	.
8ccL	ge-
8bJ	.
=8	=8
(4cc/	-rüh-
4g)	.
4e}	-ret
{(8ccL	im
8ddJ)	.
=9	=9
4.ee	gan-
8cc	-ʒen
8eeL	röm'-
8ddJ	.
8ddL	-ſchen
8bJ	.
=10	=10
2cc	Reich.
4r}	.
==:|;;	==:|;;
!!!AGN: Sagen - Lied, Romanze, Tod
!!!ONB: ESAC (Essen Associative Code) Database: ZUCCAL
!!!AMT: simple quadruple
!!!AIN: vox
!!!EED: Helmut Schaffrath
!!!EEV: 1.0
!!!GTL: I. Ernste Romanzen und Sagen.
!!!URL-scan: https://www.digitale-sammlungen.de/de/view/bsb11160571?page=115
!!!ENC: Anna Maria Matuszewska
!!!EEV: 2025/01/24
*-	*-
